X: 20301
M: C
L: 1/8
K: A
|:\
a2 |\
g2e>e aec'2 | bagf e2z2 | d2B>B cAf2 | edcB c2a2 |\
g2e>e aec'2 | bagf g2e2 | f>fB>B c>c^d>d | e2e>e edcB |
|: e2 |\
a2e>e aec'e | bed'e bege | a2e>e aec'e | bed'e bege |\
"_>"a4 bea2 | "_>"g4 acf2 | edcB A2G2 | A2A>A A2 :|


